modules/feathericon/icons/tired.svg

<?xml version="1.0" encoding="UTF-8"?>
<svg width="14px" height="14px" viewBox="0 0 14 14" version="1.1" xmlns="http://www.w3.org/2000/svg" xmlns:xlink="http://www.w3.org/1999/xlink">
    <!-- Generator: sketchtool 48.1 (47250) - http://www.bohemiancoding.com/sketch -->
    <title>tired</title>
    <desc>Created with sketchtool.</desc>
    <defs></defs>
    <g id="people" stroke="none" stroke-width="1" fill="none" fill-rule="evenodd">
        <g id="tired" fill="#000000">
            <path d="M7,13 C10.3137085,13 13,10.3137085 13,7 C13,3.6862915 10.3137085,1 7,1 C3.6862915,1 1,3.6862915 1,7 C1,10.3137085 3.6862915,13 7,13 Z M7,14 C3.13400675,14 0,10.8659932 0,7 C0,3.13400675 3.13400675,0 7,0 C10.8659932,0 14,3.13400675 14,7 C14,10.8659932 10.8659932,14 7,14 Z M7,12 C8.1045695,12 9,11.1045695 9,10 C9,8.8954305 8.1045695,8 7,8 C5.8954305,8 5,8.8954305 5,10 C5,11.1045695 5.8954305,12 7,12 Z M3,4.5 L3.5,4 L4.5,5 L5.5,4 L6,4.5 L5,5.5 L6,6.5 L5.5,7 L4.5,6 L3.5,7 L3,6.5 L4,5.5 L3,4.5 Z M8,4.5 L8.5,4 L9.5,5 L10.5,4 L11,4.5 L10,5.5 L11,6.5 L10.5,7 L9.5,6 L8.5,7 L8,6.5 L9,5.5 L8,4.5 Z" id="Shape"></path>
        </g>
    </g>
</svg>

<svg width="14" height="14" viewBox="0 0 14 14" xmlns="http://www.w3.org/2000/svg"><path d="M7 13A6 6 0 1 0 7 1a6 6 0 0 0 0 12zm0 1A7 7 0 1 1 7 0a7 7 0 0 1 0 14zm0-2a2 2 0 1 0 0-4 2 2 0 0 0 0 4zM3 4.5l.5-.5 1 1 1-1 .5.5-1 1 1 1-.5.5-1-1-1 1-.5-.5 1-1-1-1zm5 0l.5-.5 1 1 1-1 .5.5-1 1 1 1-.5.5-1-1-1 1-.5-.5 1-1-1-1z" fill="#000" fill-rule="evenodd"/></svg>
